lib/flags/l/LBN.svg

<svg xmlns="http://www.w3.org/2000/svg" fill="none" viewBox="0 0 32 24"><mask id="LBN_svg__a" width="32" height="24" x="0" y="0" mask-type="alpha" maskUnits="userSpaceOnUse"><path fill="#fff" d="M0 0H32V24H0z"/></mask><g fill-rule="evenodd" clip-rule="evenodd" mask="url(#LBN_svg__a)"><path fill="#F50101" d="M32 0H0V6H32V0ZM32 18H0V24H32V18Z"/><path fill="#F7FCFF" d="M0 6H32V18H0V6Z"/><path fill="#52AB0B" d="M21.5149 12.5132C21.5894 13.3806 18.3886 12.1534 18.3886 12.5007C18.3886 12.8479 21.8175 13.4577 21.8118 14.2351C21.8061 15.0125 17.746 14.0133 18.6565 14.3629C19.5669 14.7125 21.5217 15.5494 21.2996 16.0709C20.8251 17.1844 17.6735 15.2983 17.4114 15.6702C16.9883 16.2699 19.737 17.6688 19.7138 17.8025C19.669 18.0589 17.8365 17.3996 17.4114 17.9319C17.0672 17.8349 16.9082 17.3715 16.8013 17.31L16.125 8.58661C16.125 8.58661 16.7322 16.8 15.9563 17.0362C15.1804 17.2725 13.0249 17.9907 12.9622 17.632C12.9389 17.4983 15.5575 16.2699 15.1345 15.6702C14.8229 15.2282 11.6628 16.7955 11.4611 15.8879C10.563 15.2405 14.3699 14.6802 14.3699 14.0181C14.3699 13.3559 10.8873 14.8018 11.3039 13.8801C11.7205 12.9583 14.5086 12.6283 14.5606 12.5007C14.6557 12.2672 11.4611 12.8641 11.4611 12.5007C11.4611 11.813 13.3733 11.6777 14.5606 11.0588C14.6308 10.3526 11.6803 11.754 11.4611 11.1879C11.242 10.6218 15.2323 9.15516 15.1345 9.04091C14.9801 8.86047 11.7642 9.67464 12.2945 9.24709C13.3238 8.41729 15.333 7.28891 15.7952 6.98793C15.7952 6.98793 15.8509 6.87436 15.9104 6.9129C15.9701 6.87436 16.0356 6.83215 16.0356 6.83215C16.0356 6.83215 16.0356 7.54218 16.0258 6.98793C16.0159 6.43367 20.7354 8.85893 20.789 9.47373C20.8513 10.192 17.8728 8.93227 17.9429 9.63848C18.5483 10.0136 20.2704 10.7396 20.982 11.0588C21.3047 11.2036 18.6042 10.7523 18.6612 10.9739C18.8066 11.5385 21.4371 11.6086 21.5149 12.5132Z"/></g></svg>

<svg xmlns="http://www.w3.org/2000/svg" fill="none" viewBox="0 0 32 24"><mask id="LBN_svg__a" width="32" height="24" x="0" y="0" maskUnits="userSpaceOnUse"><path fill="#fff" d="M0 0h32v24H0z"/></mask><g fill-rule="evenodd" clip-rule="evenodd" mask="url(#LBN_svg__a)"><path fill="#F50101" d="M32 0H0v6h32V0zm0 18H0v6h32v-6z"/><path fill="#F7FCFF" d="M0 6h32v12H0V6z"/><path fill="#52AB0B" d="M21.515 12.513c.074.868-3.126-.36-3.126-.012 0 .347 3.428.957 3.423 1.734-.006.777-4.066-.222-3.155.128.91.35 2.865 1.186 2.643 1.708-.475 1.113-3.627-.773-3.889-.4-.423.599 2.326 1.998 2.303 2.131-.045.257-1.877-.402-2.303.13-.344-.097-.503-.56-.61-.622l-.676-8.723s.607 8.213-.169 8.45c-.776.235-2.931.954-2.994.595-.023-.134 2.595-1.362 2.172-1.962-.311-.442-3.471 1.126-3.673.218-.898-.647 2.909-1.208 2.909-1.87 0-.662-3.483.784-3.066-.138.416-.922 3.205-1.252 3.257-1.38.095-.233-3.1.364-3.1 0 0-.687 1.912-.822 3.1-1.441.07-.707-2.88.695-3.1.129-.219-.566 3.771-2.033 3.673-2.147-.154-.18-3.37.634-2.84.206 1.03-.83 3.039-1.958 3.501-2.26 0 0 .056-.113.115-.074l.126-.08s0 .71-.01.155c-.01-.554 4.71 1.87 4.763 2.486.062.718-2.916-.542-2.846.164.605.376 2.327 1.101 3.039 1.42.323.146-2.378-.306-2.32-.084.145.565 2.775.635 2.853 1.54z"/></g></svg>
